src/status/16/fcitx-wubi.svg

<?xml version="1.0" encoding="UTF-8"?>
<svg width="16" height="16" version="1.1" xmlns="http://www.w3.org/2000/svg">
 <defs>
  <style id="current-color-scheme" type="text/css"/>
 </defs>
 <path d="m3 3h9v1h-4.098l-0.666 3h3.764v5h2v1h-10v-1h2.1l0.888-4h-1.988v-1h2.21l0.667-3h-3.877zm4.014 5-0.891 4h3.877v-4z" color="#363636" fill="currentColor"/>
 <path class="ColorScheme-Text" d="m3 0c-1.662 0-3 1.338-3 3v10c0 1.662 1.338 3 3 3h9.9989c1.662 0 3-1.338 3-3v-10c0-1.662-1.338-3-3-3zm0 1h9.9989c1.108 0 2 0.892 2 2v10c0 1.108-0.892 2-2 2h-9.9989c-1.108 0-2-0.892-2-2v-10c0-1.108 0.892-2 2-2z" color="#363636" fill="currentColor"/>
</svg>

<svg xmlns="http://www.w3.org/2000/svg" width="16" height="16">
    <path fill="currentColor" fill-opacity=".7" d="M3 3h9v1H7.902l-.666 3H11v5h2v1H3v-1h2.1l.888-4H4V7h2.21l.667-3H3zm4.014 5-.891 4H10V8z" color="#050505"/>
    <path fill="currentColor" fill-opacity=".7" d="M3 0C1.338 0 0 1.338 0 3v10c0 1.662 1.338 3 3 3h9.999c1.662 0 3-1.338 3-3V3c0-1.662-1.338-3-3-3zm0 1h9.999c1.108 0 2 .892 2 2v10c0 1.108-.892 2-2 2H3c-1.108 0-2-.892-2-2V3c0-1.108.892-2 2-2z" class="ColorScheme-Text" color="#050505"/>
</svg>
